X: 18353
T: Humours Of Whiskey, The
R: slip jig
M: 9/8
K: Bminor
|:"Em"gfe "Bm"fBB fBB|"Em"gfe "Bm"fBB "F#m"fga|"Em"gfe "Bm"fBB "G"efg|"A"agf efd cBA:|
K:Dmaj
|:"D"d2e fdf "A"ecA|"D"d2e fdd "G"gfe|"D"d2e fdf "G"efg|"A"agf efd cBA:|

